!!!OTL: "Der Schaefersohn" ES TRIEB EIN SCHAEFER WOHL UEBER DIE BRUECK
!!!ARE: Europa, Mitteleuropa, Deutschland, Niederrhein
!!!SCT: Z1086
!!!YEM: Copyright 1995, estate of Helmut Schaffrath.
**kern
*ICvox
*Ivox
*M6/8
*k[b-e-]
*g:
{8d
=1
4g
8g
8g
8a
8b-
=2
8a
8a
8g
4f#
8r}
=3
{8f#
8a
8cc
8cc
8b-
8cc
=4
4b-
8a
4g}
{8g
=5
4cc
8g
4g
8fn
=6
4fn
8e-
4.d}
=7
{8e-
8d
8c
4.d
=8
8e-
8d
8c
4.d}
=9
{4g
8f#
8g
8g
8d
=10
4e-
8d
4g}
==
!!!AGN: Romanze, Ballade
!!!ONB: ESAC (Essen Associative Code) Database: ZUCCAL
!!!AMT: compound duple
!!!AIN: vox
!!!EED: Helmut Schaffrath
!!!EEV: 1.0
*-
